svgs/duotone/school.svg

<svg xmlns="http://www.w3.org/2000/svg" viewBox="0 0 640 512"><!--! Font Awesome Pro 6.4.2 by @fontawesome - https://fontawesome.com License - https://fontawesome.com/license (Commercial License) Copyright 2023 Fonticons, Inc. --><path class="fa-primary" style="fill:var(--fa-primary-color,inherit);opacity:var(--fa-primary-opacity,1);" d="M336 144v16h16c8.8 0 16 7.2 16 16s-7.2 16-16 16H320c-8.8 0-16-7.2-16-16V144c0-8.8 7.2-16 16-16s16 7.2 16 16zM80 208c0-8.8 7.2-16 16-16h32c8.8 0 16 7.2 16 16v64c0 8.8-7.2 16-16 16H96c-8.8 0-16-7.2-16-16V208zm416 0c0-8.8 7.2-16 16-16h32c8.8 0 16 7.2 16 16v64c0 8.8-7.2 16-16 16H512c-8.8 0-16-7.2-16-16V208zM96 320h32c8.8 0 16 7.2 16 16v64c0 8.8-7.2 16-16 16H96c-8.8 0-16-7.2-16-16V336c0-8.8 7.2-16 16-16zm400 16c0-8.8 7.2-16 16-16h32c8.8 0 16 7.2 16 16v64c0 8.8-7.2 16-16 16H512c-8.8 0-16-7.2-16-16V336z"/><path class="fa-secondary" style="fill:var(--fa-secondary-color,inherit);opacity:var(--fa-secondary-opacity,.4);" d="M337.8 5.4C327-1.8 313-1.8 302.2 5.4L166.3 96H48C21.5 96 0 117.5 0 144V464c0 26.5 21.5 48 48 48H592c26.5 0 48-21.5 48-48V144c0-26.5-21.5-48-48-48H473.7L337.8 5.4zM256 416c0-35.3 28.7-64 64-64s64 28.7 64 64v96H256V416zM96 192h32c8.8 0 16 7.2 16 16v64c0 8.8-7.2 16-16 16H96c-8.8 0-16-7.2-16-16V208c0-8.8 7.2-16 16-16zm400 16c0-8.8 7.2-16 16-16h32c8.8 0 16 7.2 16 16v64c0 8.8-7.2 16-16 16H512c-8.8 0-16-7.2-16-16V208zM96 320h32c8.8 0 16 7.2 16 16v64c0 8.8-7.2 16-16 16H96c-8.8 0-16-7.2-16-16V336c0-8.8 7.2-16 16-16zm400 16c0-8.8 7.2-16 16-16h32c8.8 0 16 7.2 16 16v64c0 8.8-7.2 16-16 16H512c-8.8 0-16-7.2-16-16V336zM320 88a88 88 0 1 1 0 176 88 88 0 1 1 0-176z"/></svg>

<svg xmlns="http://www.w3.org/2000/svg" viewBox="0 0 640 512"><!--! Font Awesome Pro 6.1.1 by @fontawesome - https://fontawesome.com License - https://fontawesome.com/license (Commercial License) Copyright 2022 Fonticons, Inc. --><defs><style>.fa-secondary{opacity:.4}</style></defs><path class="fa-primary" d="M336 160H352C360.8 160 368 167.2 368 176C368 184.8 360.8 192 352 192H320C311.2 192 304 184.8 304 176V144C304 135.2 311.2 128 320 128C328.8 128 336 135.2 336 144V160zM80 208C80 199.2 87.16 192 96 192H128C136.8 192 144 199.2 144 208V272C144 280.8 136.8 288 128 288H96C87.16 288 80 280.8 80 272V208zM496 208C496 199.2 503.2 192 512 192H544C552.8 192 560 199.2 560 208V272C560 280.8 552.8 288 544 288H512C503.2 288 496 280.8 496 272V208zM128 320C136.8 320 144 327.2 144 336V400C144 408.8 136.8 416 128 416H96C87.16 416 80 408.8 80 400V336C80 327.2 87.16 320 96 320H128zM496 336C496 327.2 503.2 320 512 320H544C552.8 320 560 327.2 560 336V400C560 408.8 552.8 416 544 416H512C503.2 416 496 408.8 496 400V336z"/><path class="fa-secondary" d="M476.8 98.06L602.4 125.1C624.4 130.9 640 150.3 640 172.8V464C640 490.5 618.5 512 592 512H48C21.49 512 0 490.5 0 464V172.8C0 150.3 15.63 130.9 37.59 125.1L163.2 98.06L302.2 5.374C312.1-1.791 327-1.791 337.8 5.374L476.8 98.06zM256 512H384V416C384 380.7 355.3 352 320 352C284.7 352 256 380.7 256 416V512zM96 192C87.16 192 80 199.2 80 208V272C80 280.8 87.16 288 96 288H128C136.8 288 144 280.8 144 272V208C144 199.2 136.8 192 128 192H96zM496 272C496 280.8 503.2 288 512 288H544C552.8 288 560 280.8 560 272V208C560 199.2 552.8 192 544 192H512C503.2 192 496 199.2 496 208V272zM96 320C87.16 320 80 327.2 80 336V400C80 408.8 87.16 416 96 416H128C136.8 416 144 408.8 144 400V336C144 327.2 136.8 320 128 320H96zM496 400C496 408.8 503.2 416 512 416H544C552.8 416 560 408.8 560 400V336C560 327.2 552.8 320 544 320H512C503.2 320 496 327.2 496 336V400zM320 264C368.6 264 408 224.6 408 176C408 127.4 368.6 88 320 88C271.4 88 232 127.4 232 176C232 224.6 271.4 264 320 264z"/></svg>
